udata_front/theme/gouvfr/templates/svg/search/reuse.svg

<svg fill="none" height="15" viewBox="0 0 20 15" width="20" xmlns="http://www.w3.org/2000/svg"><path d="m19.6875 13.75h-18.4375v-13.4375c0-.15625-.15625-.3125-.3125-.3125h-.625c-.195312 0-.3125.15625-.3125.3125v14.0625c0 .3516.273438.625.625.625h19.0625c.1563 0 .3125-.1172.3125-.3125v-.625c0-.1563-.1562-.3125-.3125-.3125zm-15.85938-5.9375c-.11718.11719-.11718.3125 0 .42969l.42969.42969c.11719.11718.3125.11718.42969 0l2.85156-2.8125 3.32034 3.32031c.2344.23437.625.23437.8594 0l3.6718-3.67188 1.7188 1.71875c.1953.19532.4297.27344.664.27344.5078 0 .9766-.35156.9766-.9375v-4.64844c0-.35156-.3125-.66406-.6641-.66406h-4.6484c-.8594 0-1.2891 1.05469-.6641 1.64062l1.7188 1.75782-3.2031 3.20312-3.28129-3.32031c-.27343-.23437-.66406-.23437-.89843 0zm10.31248-5.3125h3.3594v3.35938z" fill="#3a3a3a"/></svg>

<svg width="20" height="15" viewBox="0 0 20 15" fill="none" xmlns="http://www.w3.org/2000/svg">
<path d="M19.6875 13.75H1.25V0.3125C1.25 0.15625 1.09375 0 0.9375 0H0.3125C0.117188 0 0 0.15625 0 0.3125V14.375C0 14.7266 0.273438 15 0.625 15H19.6875C19.8438 15 20 14.8828 20 14.6875V14.0625C20 13.9062 19.8438 13.75 19.6875 13.75ZM3.82812 7.8125C3.71094 7.92969 3.71094 8.125 3.82812 8.24219L4.25781 8.67188C4.375 8.78906 4.57031 8.78906 4.6875 8.67188L7.53906 5.85938L10.8594 9.17969C11.0938 9.41406 11.4844 9.41406 11.7188 9.17969L15.3906 5.50781L17.1094 7.22656C17.3047 7.42188 17.5391 7.5 17.7734 7.5C18.2812 7.5 18.75 7.14844 18.75 6.5625V1.91406C18.75 1.5625 18.4375 1.25 18.0859 1.25H13.4375C12.5781 1.25 12.1484 2.30469 12.7734 2.89062L14.4922 4.64844L11.2891 7.85156L8.00781 4.53125C7.73438 4.29688 7.34375 4.29688 7.10938 4.53125L3.82812 7.8125ZM14.1406 2.5H17.5V5.85938L14.1406 2.5Z" fill="#3A3A3A"/>
</svg>
